icons/core/star-half.svg

<svg width="32" height="32" viewBox="0 0 32 32" fill="none" xmlns="http://www.w3.org/2000/svg">
<path fill-rule="evenodd" clip-rule="evenodd" d="M17.1292 1.3789C16.677 0.427849 15.3235 0.427868 14.8714 1.3789L10.8889 9.75553L1.7203 10.9686C0.679325 11.1063 0.261759 12.3884 1.02201 13.1128L7.73203 19.5058L6.04754 28.6361C5.85669 29.6706 6.951 30.4638 7.87475 29.9606L16.0003 25.5344L24.1258 29.9606C25.0496 30.4638 26.1439 29.6706 25.953 28.6361L24.2685 19.5058L30.9785 13.1128C31.7388 12.3884 31.3212 11.1063 30.2803 10.9686L21.1117 9.75553L17.1292 1.3789ZM16.0001 3.66269L16.0003 3.66234L19.4804 10.9823C19.6623 11.3648 20.0255 11.6293 20.4454 11.6848L28.4644 12.7457L22.5951 18.3377C22.2895 18.6289 22.1515 19.0545 22.2281 19.4695L23.7007 27.4516L16.5982 23.5826C16.4118 23.4811 16.206 23.4303 16.0001 23.4303V3.66269Z" fill="black"/>
</svg>

<svg viewBox="0 0 32 32" xmlns="http://www.w3.org/2000/svg"><path fill-rule="evenodd" d="M17.13 1.379c-.453-.951-1.806-.951-2.259 0L10.89 9.756 1.72 10.969c-1.04.137-1.458 1.42-.698 2.144l6.71 6.393-1.684 9.13c-.191 1.035.903 1.828 1.827 1.325L16 25.534l8.126 4.427c.924.503 2.018-.29 1.827-1.325l-1.684-9.13 6.71-6.393c.76-.725.342-2.007-.699-2.144l-9.168-1.213-3.983-8.377zM16 3.663l3.48 7.32c.182.382.546.646.965.702l8.02 1.06-5.87 5.593a1.25 1.25 0 00-.367 1.131l1.473 7.983-7.103-3.87A1.25 1.25 0 0016 23.43V3.663z"/></svg>
